X: 1
T: Da Fields O' Foula
M: 4/4
L: 1/8
R: reel
K: Dmaj
EAAF GEFD | B,2GE D2FD | EAAF GEFD | EFDF E2E2 |
AccA BGAF | G2dG F2cF | AccA BGAF | EFDF E2E2 |
|: A,2B,A, EA,B,A, | B,2GE D2FD | A,2B,A, EA,B,A, | (3DEFDF A2A2 :|
dcBd cBAB | (3cBAGF E2E2 | dcBd cBAB | (3cBAcd e2e2 |
fedf edcd | (3edcBA G2G2 | fedf edcd | (3edcef a2a2 |
